X:11
T:La ronde du looby
R:Ronde
Z:Transcrit et/ou corrigé par Michel BELLON - 2007-04-06
Z:Pour toute observation mailto:galouvielle@free.fr
M:6/8
L:1/8
Q:3/8=114
K:G
Z4 [P:A] |: GGG B2G | d3 z2z |
w:Nous chan-tons nous dan-sons
GGG B2G | A3 z2z | GGG B2G |
w:la ron-de du loo-by Nous chan-tons nous don-
d3 z2d | d2c B2A | G3 z2D [P:B] || G2G G2G |
w:sons ain-si chaqu' mer-cre-di Mets ta main droite de-
G3 z2D | B2B B2B | B3 z2G |
w:vant Mets ta main droite der-rière se-
ddd ddd | d3 z2B | D2A G2F | G3 g3 :|
w:coue cou cou cou cou cou cou  un tour et puis voi-là Youp

%%footer $D   Galouvielle-MBe 2007 \nRonde (--)
